app/assets/images/Contenido/Odin/Muebles.svg

<svg fill="none" height="130" viewBox="0 0 117 130" width="117" xmlns="http://www.w3.org/2000/svg"><circle cx="57.8345" cy="45.4964" r="44.3397" stroke="#000" stroke-width="2.31337"/><g fill="#000"><path d="m32.5129 124.873h-2.4984l-.0203-9.425-4.6716 7.8h-1.1781l-4.6717-7.678v9.303h-2.5186v-14.218h2.1733l5.6467 9.424 5.545-9.424h2.1734zm11.5588-10.846h2.539v10.846h-2.4171v-1.381c-.8124.995-2.0921 1.523-3.4936 1.523-2.7827 0-4.6716-1.523-4.6716-4.793v-6.195h2.5389v5.849c0 1.971.9343 2.905 2.539 2.905 1.7671 0 2.9654-1.097 2.9654-3.27zm16.0597 5.484c0 .203-.0203.508-.0406.751h-8.5106c.3047 1.585 1.6249 2.6 3.5139 2.6 1.2187 0 2.1734-.386 2.9452-1.178l1.3609 1.564c-.975 1.158-2.4984 1.767-4.367 1.767-3.6358 0-5.9919-2.336-5.9919-5.565 0-3.23 2.3764-5.545 5.606-5.545 3.1686 0 5.4841 2.214 5.4841 5.606zm-5.4841-3.575c-1.6453 0-2.8437 1.056-3.0874 2.64h6.1544c-.2031-1.564-1.4015-2.64-3.067-2.64zm13.9351-2.031c3.1686 0 5.5045 2.173 5.5045 5.545s-2.3359 5.565-5.5045 5.565c-1.4827 0-2.742-.508-3.5951-1.544v1.402h-2.4171v-15.071h2.539v5.545c.8734-.975 2.092-1.442 3.4732-1.442zm-.2843 8.937c1.828 0 3.2092-1.32 3.2092-3.392s-1.3812-3.392-3.2092-3.392c-1.8281 0-3.2296 1.32-3.2296 3.392s1.4015 3.392 3.2296 3.392zm8.1967 2.031v-15.071h2.5389v15.071zm16.0677-5.362c0 .203-.0203.508-.0406.751h-8.5106c.3047 1.585 1.6249 2.6 3.5139 2.6 1.2187 0 2.1733-.386 2.9452-1.178l1.3609 1.564c-.975 1.158-2.4984 1.767-4.367 1.767-3.6358 0-5.9919-2.336-5.9919-5.565 0-3.23 2.3764-5.545 5.606-5.545 3.1686 0 5.4841 2.214 5.4841 5.606zm-5.4841-3.575c-1.6453 0-2.8437 1.056-3.0874 2.64h6.1544c-.2031-1.564-1.4015-2.64-3.067-2.64zm11.2743 9.079c-1.8077 0-3.6154-.528-4.5904-1.219l.975-1.929c.9546.63 2.417 1.076 3.7779 1.076 1.6048 0 2.2748-.446 2.2748-1.198 0-2.072-6.7027-.122-6.7027-4.448 0-2.052 1.8483-3.392 4.7732-3.392 1.4425 0 3.0875.345 4.0625.934l-.975 1.93c-1.036-.61-2.0719-.813-3.1078-.813-1.5437 0-2.2749.508-2.2749 1.219 0 2.194 6.7027.244 6.7027 4.489 0 2.031-1.869 3.351-4.9153 3.351z"/><path d="m87.772 36.2659h-1.3331v-4.9543c0-2.9289-2.3827-5.3116-5.3115-5.3116h-19.25c-1.7845 0-3.3651.8855-4.3287 2.2391-.9636-1.3537-2.5442-2.2391-4.3287-2.2391h-12.0935c-.5428 0-.9829.4401-.9829.9829s.4401.9828.9829.9828h12.0935c1.8449 0 3.3458 1.501 3.3458 3.3459v9.83c-.0206-.0198-.0423-.0383-.0632-.0578-1.165-1.0863-2.744-1.7124-4.3378-1.7124h-16.3718c-.0866-1.3197-.9863-2.4804-2.2277-2.9205-.3498-.1239-.7196-.185-1.0906-.185h-1.8505v-4.9543c0-1.8449 1.5009-3.3459 3.3458-3.3459h3.225c.5428 0 .9829-.44.9829-.9828s-.4401-.9829-.9829-.9829h-3.225c-2.9288 0-5.3116 2.3827-5.3116 5.3116v4.9543h-1.333c-1.8337 0-3.3254 1.492-3.3254 3.3254v10.2626c0 3.8185 3.1067 6.9252 6.9252 6.9252h.4939s-1.0762 2.8946-1.077 2.8968c-.6789 1.8261.7186 3.832 2.6636 3.832h1.5813c.8851 0 1.7323-.4214 2.2663-1.1274l4.237-5.6014h32.917l4.237 5.6016c.534.7058 1.3812 1.1272 2.2662 1.1272h1.5811c1.9474 0 3.3425-2.0063 2.6636-3.832l-1.0771-2.8968h.4941c3.8185 0 6.9252-3.1067 6.9252-6.9252v-10.2626c0-1.8334-1.4918-3.3254-3.3254-3.3254zm-29.2404-4.9541c0-1.845 1.5009-3.3459 3.3458-3.3459h19.25c1.8449 0 3.3458 1.5009 3.3458 3.3458v4.9543s-1.85 0-1.8507 0c-1.3068 0-2.5604.8387-3.0673 2.042-.142.337-.227.6989-.2509 1.0636 0 0-16.3712 0-16.3717 0-1.6185 0-3.2316.6512-4.401 1.7703zm-22.7314 10.0254h16.3646c2.4268.0002 4.401 1.9744 4.401 4.4012v1.3977h-20.7656zm-.5146 19.8575c-.1646.2176-.4259.3475-.6988.3475 0 0-1.5757 0-1.5812 0-.6018 0-1.0307-.6174-.821-1.1811l1.3317-3.582h5.1091zm46.806.3474h-1.5811c-.2728 0-.534-.1299-.6986-.3474l-3.3399-4.4156h5.1091s1.3271 3.5694 1.3317 3.5818c.2101.5651-.2219 1.1812-.8212 1.1812zm2.0806-6.7288h-53.247c-2.7346.0002-4.9595-2.2248-4.9595-4.9594v-10.2626c0-.7498.6099-1.3597 1.3597-1.3597h5.1493c.7497 0 1.3597.6099 1.3597 1.3597v8.5275c0 .5428.44.9829.9828.9829h36.1012c.5428 0 .9828-.4401.9828-.9829s-.44-.9829-.9828-.9829h-12.3868v-1.3976c0-2.4268 1.9742-4.4011 4.401-4.4011h16.3645v5.7989h-4.4473c-.5428 0-.9828.44-.9828.9828s.44.9829.9828.9829h5.4302c.5428 0 .9829-.4401.9829-.9829v-8.5275c0-.7497.6099-1.3596 1.3596-1.3596h5.1494c.7497 0 1.3596.6099 1.3596 1.3596v10.2625h.0001c0 2.7346-2.2248 4.9594-4.9594 4.9594z"/></g></svg>

<svg width="117" height="130" viewBox="0 0 117 130" fill="none" xmlns="http://www.w3.org/2000/svg">
<circle cx="57.8345" cy="45.4964" r="44.3397" stroke="black" stroke-width="2.31337"/>
<path d="M32.5129 124.873H30.0145L29.9942 115.448L25.3226 123.248H24.1445L19.4728 115.57V124.873H16.9542V110.655H19.1275L24.7742 120.079L30.3192 110.655H32.4926L32.5129 124.873ZM44.0717 114.027H46.6107V124.873H44.1936V123.492C43.3812 124.487 42.1015 125.015 40.7 125.015C37.9173 125.015 36.0284 123.492 36.0284 120.222V114.027H38.5673V119.876C38.5673 121.847 39.5016 122.781 41.1063 122.781C42.8734 122.781 44.0717 121.684 44.0717 119.511V114.027ZM60.1314 119.511C60.1314 119.714 60.1111 120.019 60.0908 120.262H51.5802C51.8849 121.847 53.2051 122.862 55.0941 122.862C56.3128 122.862 57.2675 122.476 58.0393 121.684L59.4002 123.248C58.4252 124.406 56.9018 125.015 55.0332 125.015C51.3974 125.015 49.0413 122.679 49.0413 119.45C49.0413 116.22 51.4177 113.905 54.6473 113.905C57.8159 113.905 60.1314 116.119 60.1314 119.511ZM54.6473 115.936C53.002 115.936 51.8036 116.992 51.5599 118.576H57.7143C57.5112 117.012 56.3128 115.936 54.6473 115.936ZM68.5824 113.905C71.751 113.905 74.0869 116.078 74.0869 119.45C74.0869 122.822 71.751 125.015 68.5824 125.015C67.0997 125.015 65.8404 124.507 64.9873 123.471V124.873H62.5702V109.802H65.1092V115.347C65.9826 114.372 67.2012 113.905 68.5824 113.905ZM68.2981 122.842C70.1261 122.842 71.5073 121.522 71.5073 119.45C71.5073 117.378 70.1261 116.058 68.2981 116.058C66.47 116.058 65.0685 117.378 65.0685 119.45C65.0685 121.522 66.47 122.842 68.2981 122.842ZM76.4948 124.873V109.802H79.0337V124.873H76.4948ZM92.5625 119.511C92.5625 119.714 92.5422 120.019 92.5219 120.262H84.0113C84.316 121.847 85.6362 122.862 87.5252 122.862C88.7439 122.862 89.6985 122.476 90.4704 121.684L91.8313 123.248C90.8563 124.406 89.3329 125.015 87.4643 125.015C83.8285 125.015 81.4724 122.679 81.4724 119.45C81.4724 116.22 83.8488 113.905 87.0784 113.905C90.247 113.905 92.5625 116.119 92.5625 119.511ZM87.0784 115.936C85.4331 115.936 84.2347 116.992 83.991 118.576H90.1454C89.9423 117.012 88.7439 115.936 87.0784 115.936ZM98.3527 125.015C96.545 125.015 94.7373 124.487 93.7623 123.796L94.7373 121.867C95.6919 122.497 97.1543 122.943 98.5152 122.943C100.12 122.943 100.79 122.497 100.79 121.745C100.79 119.673 94.0873 121.623 94.0873 117.297C94.0873 115.245 95.9356 113.905 98.8605 113.905C100.303 113.905 101.948 114.25 102.923 114.839L101.948 116.769C100.912 116.159 99.8761 115.956 98.8402 115.956C97.2965 115.956 96.5653 116.464 96.5653 117.175C96.5653 119.369 103.268 117.419 103.268 121.664C103.268 123.695 101.399 125.015 98.3527 125.015Z" fill="black"/>
<path d="M87.772 36.2659H86.4389V31.3116C86.4389 28.3827 84.0562 26 81.1274 26H61.8774C60.0929 26 58.5123 26.8855 57.5487 28.2391C56.5851 26.8854 55.0045 26 53.22 26H41.1265C40.5837 26 40.1436 26.4401 40.1436 26.9829C40.1436 27.5257 40.5837 27.9657 41.1265 27.9657H53.22C55.0649 27.9657 56.5658 29.4667 56.5658 31.3116V41.1416C56.5452 41.1218 56.5235 41.1033 56.5026 41.0838C55.3376 39.9975 53.7586 39.3714 52.1648 39.3714H35.793C35.7064 38.0517 34.8067 36.891 33.5653 36.4509C33.2155 36.327 32.8457 36.2659 32.4747 36.2659H30.6242V31.3116C30.6242 29.4667 32.1251 27.9657 33.97 27.9657H37.195C37.7378 27.9657 38.1779 27.5257 38.1779 26.9829C38.1779 26.4401 37.7378 26 37.195 26H33.97C31.0412 26 28.6584 28.3827 28.6584 31.3116V36.2659H27.3254C25.4917 36.2659 24 37.7579 24 39.5913V49.8539C24 53.6724 27.1067 56.7791 30.9252 56.7791H31.4191C31.4191 56.7791 30.3429 59.6737 30.3421 59.6759C29.6632 61.502 31.0607 63.5079 33.0057 63.5079H34.587C35.4721 63.5079 36.3193 63.0865 36.8533 62.3805L41.0903 56.7791H74.0073L78.2443 62.3807C78.7783 63.0865 79.6255 63.5079 80.5105 63.5079C80.5105 63.5079 82.0907 63.5079 82.0916 63.5079C84.039 63.5079 85.4341 61.5016 84.7552 59.6759L83.6781 56.7791H84.1722C87.9907 56.7791 91.0974 53.6724 91.0974 49.8539V39.5913C91.0974 37.7579 89.6056 36.2659 87.772 36.2659ZM58.5316 31.3118C58.5316 29.4668 60.0325 27.9659 61.8774 27.9659H81.1274C82.9723 27.9659 84.4732 29.4668 84.4732 31.3117V36.266C84.4732 36.266 82.6232 36.266 82.6225 36.266C81.3157 36.266 80.0621 37.1047 79.5552 38.308C79.4132 38.645 79.3282 39.0069 79.3043 39.3716C79.3043 39.3716 62.9331 39.3716 62.9326 39.3716C61.3141 39.3716 59.701 40.0228 58.5316 41.1419V31.3118ZM35.8002 41.3372H52.1648C54.5916 41.3374 56.5658 43.3116 56.5658 45.7384V47.1361H35.8002V41.3372ZM35.2856 61.1947C35.121 61.4123 34.8597 61.5422 34.5868 61.5422C34.5868 61.5422 33.0111 61.5422 33.0056 61.5422C32.4038 61.5422 31.9749 60.9248 32.1846 60.3611L33.5163 56.7791H38.6254L35.2856 61.1947ZM82.0916 61.5421H80.5105C80.2377 61.5421 79.9765 61.4122 79.8119 61.1947L76.472 56.7791H81.5811C81.5811 56.7791 82.9082 60.3485 82.9128 60.3609C83.1229 60.926 82.6909 61.5421 82.0916 61.5421ZM84.1722 54.8133H30.9252C28.1906 54.8135 25.9657 52.5885 25.9657 49.8539V39.5913C25.9657 38.8415 26.5756 38.2316 27.3254 38.2316H32.4747C33.2244 38.2316 33.8344 38.8415 33.8344 39.5913V48.1188C33.8344 48.6616 34.2744 49.1017 34.8172 49.1017H70.9184C71.4612 49.1017 71.9012 48.6616 71.9012 48.1188C71.9012 47.576 71.4612 47.1359 70.9184 47.1359H58.5316V45.7383C58.5316 43.3115 60.5058 41.3372 62.9326 41.3372H79.2971V47.1361H74.8498C74.307 47.1361 73.867 47.5761 73.867 48.1189C73.867 48.6617 74.307 49.1018 74.8498 49.1018H80.28C80.8228 49.1018 81.2629 48.6617 81.2629 48.1189V39.5914C81.2629 38.8417 81.8728 38.2318 82.6225 38.2318H87.7719C88.5216 38.2318 89.1315 38.8417 89.1315 39.5914V49.8539H89.1316C89.1316 52.5885 86.9068 54.8133 84.1722 54.8133Z" fill="black"/>
</svg>
